!!!COM: Schubert, Franz
!!!CDT: 1797/01/31-1828/11/19
!!!SCT: D. 365
!!!OPR: 36 Originaltänze
!!!OPS: 9
!!!ONM: 4
**kern	**kern
*part1	*part1
*staff2	*staff1
*clefF4	*clefG2
*k[b-e-a-d-]	*k[b-e-a-d-]
*M3/4	*M3/4
=	=
4r	(4ccm
=1	=1
*A-:	*
*^	*
4r	2.E-	4b-)
4G 4e-	.	8b-L
.	.	8ccJ
4B- 4e-	.	4dd-
=2	=2	=2
4r	2.E-	2cc
4A- 4e-	.	.
4c 4e-	.	(4a-
=3	=3	=3
4r	2.E-	4dd-)
4B- 4e-	.	8dd-L
.	.	8ee-J
4d- 4e-	.	(4g 4ff
=4	=4	=4
4r	2.E-	2a-) 2ee-
4c 4e-	.	.
4A- 4e-	.	4cc
=5	=5	=5
4r	2.E-	4a- 4ee-
4c 4e-	.	(8ee-L
.	.	8ffJ
4c 4e-	.	8ggL
.	.	8aa-J)
=6	=6	=6
4r	2.E-	4b- 4aa-
4B- 4e-	.	4.gg
4A- 4e-	.	.
.	.	8ff
!!linebreak:original
=7	=7	=7
4r	2.E-	(8gL 8ff
.	.	8ee-J)
4G 4B- 4e-	.	(8ee-L
.	.	8dd-J
4G 4B- 4e-	.	8ccL
.	.	8b-J)
=8	=8	=8
2c 2e-	2A-	2a-
*v	*v	*
=:|!|:	=:|!|:
4r	4ee-
=9	=9
*b-:	*
*^	*
4r	2.F	4an 4cc
4An 4f	.	8ccL
.	.	8dd-J
4c 4f	.	4ee-
*clefG2	*	*
=10	=10	=10
4r	2.B-	2dd-
4d- 4f	.	.
4d- 4f	.	4b-
=11	=11	=11
*D-:	*D-:	*
4r	2.A-	4cc 4ee-
4e- 4g-X 4a-	.	8ccL 8ee-
.	.	8dd-J 8ff
4e- 4g- 4a-	.	4ee- 4gg-X
=12	=12	=12
4r	2.d-	2dd- 2ff
4f 4a-	.	.
4f 4a-	.	4dd-
!!linebreak:original
*clefF4	*	*
=13	=13	=13
*A-:	*A-:	*
4r	2.E-	4gg 4bb-
4d- 4e-	.	8ggL 8bb-
.	.	8aa-J 8ccc
4d- 4e-	.	4bb- 4ddd-
=14	=14	=14
4r	2.E-	4bbn 4dddn
4c 4e-	.	2ccc^ 2eee-
4c 4e-	.	.
=15	=15	=15
4r	2.E-	4bb- 4ddd-
4d- 4e-	.	8bb-L 8ddd-
.	.	8aa-J 8ccc
4d- 4e-	.	4ee- 4bb-
=16	=16	=16
2c 2e-	2A-	2cc 2aa-
*v	*v	*
=:|!	=:|!
*-	*-
!!!system-decoration: {(s1,s2)}
!!!AGN: Walzer
!!!EED: Wolfgang Drescher
!!!END: 2025/12/02
!!!ENC: Florian Moldaschl
!!!EEV: 2025/12/02
!!!title: @{OPR}, @{SCT} №@{ONM}